flaticon/file-type/doc.svg

<svg xmlns="http://www.w3.org/2000/svg" width="32" height="32" viewBox="0 0 24 24">
    <path d="M 21.082031 5.042969 L 20.765625 4.722656 L 16.585938 0.546875 L 16.265625 0.226562 C 16.121094 0.0820312 15.921875 0 15.71875 0 L 3.707031 0 C 3.21875 0 2.691406 0.378906 2.691406 1.210938 L 2.691406 23.171875 C 2.691406 23.519531 3.039062 23.855469 3.449219 23.960938 C 3.472656 23.96875 3.492188 23.976562 3.511719 23.980469 C 3.578125 23.992188 3.644531 24 3.707031 24 L 20.292969 24 C 20.355469 24 20.421875 23.992188 20.488281 23.980469 C 20.507812 23.976562 20.527344 23.96875 20.550781 23.960938 C 20.960938 23.855469 21.308594 23.519531 21.308594 23.171875 L 21.308594 5.785156 C 21.308594 5.464844 21.273438 5.230469 21.082031 5.042969 Z M 19.835938 4.964844 L 16.34375 4.964844 L 16.34375 1.476562 Z M 3.707031 23.171875 C 3.679688 23.171875 3.652344 23.160156 3.625 23.152344 C 3.5625 23.121094 3.515625 23.058594 3.515625 22.980469 L 3.515625 16.964844 L 20.484375 16.964844 L 20.484375 22.980469 C 20.484375 23.058594 20.4375 23.121094 20.375 23.152344 C 20.347656 23.160156 20.320312 23.171875 20.292969 23.171875 Z M 3.515625 16.136719 L 3.515625 1.210938 C 3.515625 1.121094 3.53125 0.828125 3.707031 0.828125 L 15.542969 0.828125 C 15.527344 0.878906 15.515625 0.933594 15.515625 0.988281 L 15.515625 5.792969 L 20.320312 5.792969 C 20.375 5.792969 20.429688 5.78125 20.480469 5.769531 C 20.480469 5.773438 20.484375 5.777344 20.484375 5.785156 L 20.484375 16.136719 Z M 3.515625 16.136719"/>
    <path d="M9.613281 18.785156C9.4375 18.601562 9.21875 18.453125 8.953125 18.34375 8.6875 18.230469 8.378906 18.175781 8.027344 18.175781L6.773438 18.175781 6.773438 22.34375 8.351562 22.34375C8.402344 22.34375 8.484375 22.339844 8.59375 22.324219 8.703125 22.3125 8.824219 22.28125 8.957031 22.234375 9.085938 22.1875 9.222656 22.117188 9.367188 22.023438 9.507812 21.925781 9.632812 21.796875 9.746094 21.632812 9.859375 21.46875 9.953125 21.265625 10.027344 21.023438 10.101562 20.78125 10.136719 20.488281 10.136719 20.144531 10.136719 19.894531 10.09375 19.652344 10.007812 19.417969 9.921875 19.179688 9.789062 18.972656 9.613281 18.785156zM9.121094 21.40625C8.914062 21.699219 8.585938 21.847656 8.125 21.847656L7.449219 21.847656 7.449219 18.691406 7.847656 18.691406C8.171875 18.691406 8.433594 18.730469 8.640625 18.816406 8.84375 18.902344 9.003906 19.011719 9.121094 19.152344 9.242188 19.289062 9.320312 19.441406 9.363281 19.613281 9.402344 19.78125 9.425781 19.953125 9.425781 20.125 9.425781 20.683594 9.324219 21.113281 9.121094 21.40625zM13.765625 18.652344C13.609375 18.472656 13.425781 18.339844 13.214844 18.246094 13.007812 18.152344 12.777344 18.105469 12.527344 18.105469 12.28125 18.105469 12.050781 18.152344 11.839844 18.246094 11.632812 18.339844 11.449219 18.472656 11.292969 18.652344 11.136719 18.828125 11.011719 19.050781 10.925781 19.316406 10.835938 19.582031 10.792969 19.890625 10.792969 20.238281 10.792969 20.589844 10.835938 20.898438 10.925781 21.167969 11.011719 21.433594 11.136719 21.65625 11.292969 21.835938 11.449219 22.011719 11.632812 22.144531 11.839844 22.238281 12.050781 22.328125 12.28125 22.371094 12.527344 22.371094 12.777344 22.371094 13.007812 22.328125 13.214844 22.238281 13.425781 22.144531 13.609375 22.011719 13.765625 21.835938 13.921875 21.65625 14.042969 21.433594 14.132812 21.167969 14.222656 20.898438 14.265625 20.589844 14.265625 20.238281 14.265625 19.890625 14.222656 19.582031 14.132812 19.316406 14.042969 19.050781 13.921875 18.828125 13.765625 18.652344zM13.484375 20.976562C13.429688 21.179688 13.351562 21.34375 13.25 21.46875 13.148438 21.59375 13.035156 21.683594 12.910156 21.738281 12.785156 21.792969 12.652344 21.820312 12.511719 21.820312 12.375 21.820312 12.246094 21.789062 12.125 21.730469 12 21.671875 11.890625 21.582031 11.796875 21.453125 11.699219 21.328125 11.625 21.164062 11.570312 20.964844 11.515625 20.765625 11.484375 20.523438 11.480469 20.238281 11.484375 19.949219 11.515625 19.703125 11.574219 19.503906 11.628906 19.304688 11.707031 19.140625 11.808594 19.015625 11.90625 18.886719 12.019531 18.800781 12.144531 18.746094 12.273438 18.695312 12.40625 18.667969 12.546875 18.667969 12.679688 18.667969 12.808594 18.695312 12.933594 18.753906 13.054688 18.808594 13.164062 18.902344 13.261719 19.03125 13.355469 19.15625 13.433594 19.320312 13.488281 19.519531 13.542969 19.71875 13.570312 19.957031 13.574219 20.242188 13.570312 20.53125 13.542969 20.777344 13.484375 20.976562zM16.164062 19.015625C16.261719 18.890625 16.375 18.800781 16.503906 18.746094 16.628906 18.695312 16.761719 18.667969 16.902344 18.667969 17.027344 18.667969 17.144531 18.691406 17.261719 18.742188 17.375 18.789062 17.480469 18.871094 17.574219 18.980469L18.042969 18.558594C17.890625 18.410156 17.714844 18.296875 17.519531 18.222656 17.324219 18.144531 17.113281 18.109375 16.886719 18.109375 16.640625 18.109375 16.410156 18.152344 16.199219 18.246094 15.988281 18.339844 15.804688 18.472656 15.648438 18.652344 15.492188 18.828125 15.371094 19.050781 15.28125 19.316406 15.191406 19.582031 15.148438 19.890625 15.148438 20.242188 15.148438 20.589844 15.191406 20.902344 15.28125 21.167969 15.371094 21.4375 15.492188 21.660156 15.648438 21.835938 15.804688 22.011719 15.988281 22.148438 16.199219 22.238281 16.40625 22.328125 16.636719 22.375 16.886719 22.375 17.113281 22.375 17.324219 22.335938 17.519531 22.261719 17.714844 22.183594 17.890625 22.070312 18.042969 21.921875L17.574219 21.507812C17.476562 21.617188 17.367188 21.695312 17.25 21.746094 17.132812 21.792969 17.003906 21.820312 16.867188 21.820312 16.730469 21.820312 16.601562 21.789062 16.480469 21.730469 16.359375 21.671875 16.246094 21.582031 16.152344 21.453125 16.054688 21.328125 15.980469 21.164062 15.925781 20.964844 15.871094 20.765625 15.839844 20.523438 15.839844 20.242188 15.839844 19.949219 15.871094 19.707031 15.929688 19.503906 15.984375 19.304688 16.0625 19.140625 16.164062 19.015625zM5.585938 5.792969L8.070312 5.792969C8.296875 5.792969 8.484375 5.609375 8.484375 5.378906 8.484375 5.152344 8.296875 4.964844 8.070312 4.964844L5.585938 4.964844C5.359375 4.964844 5.171875 5.152344 5.171875 5.378906 5.171875 5.609375 5.359375 5.792969 5.585938 5.792969zM5.585938 7.863281L9.308594 7.863281C9.539062 7.863281 9.722656 7.675781 9.722656 7.449219 9.722656 7.21875 9.539062 7.035156 9.308594 7.035156L5.585938 7.035156C5.359375 7.035156 5.171875 7.21875 5.171875 7.449219 5.171875 7.675781 5.359375 7.863281 5.585938 7.863281zM10.964844 7.863281C11.074219 7.863281 11.179688 7.816406 11.257812 7.742188 11.332031 7.664062 11.378906 7.554688 11.378906 7.449219 11.378906 7.339844 11.332031 7.234375 11.257812 7.15625 11.105469 7 10.824219 7 10.671875 7.15625 10.597656 7.234375 10.550781 7.339844 10.550781 7.449219 10.550781 7.554688 10.597656 7.664062 10.671875 7.742188 10.75 7.816406 10.859375 7.863281 10.964844 7.863281zM12.621094 7.863281L15.929688 7.863281C16.160156 7.863281 16.34375 7.675781 16.34375 7.449219 16.34375 7.21875 16.160156 7.035156 15.929688 7.035156L12.621094 7.035156C12.390625 7.035156 12.207031 7.21875 12.207031 7.449219 12.207031 7.675781 12.390625 7.863281 12.621094 7.863281zM5.292969 13.363281C5.21875 13.441406 5.171875 13.546875 5.171875 13.65625 5.171875 13.761719 5.21875 13.871094 5.292969 13.949219 5.371094 14.023438 5.480469 14.070312 5.585938 14.070312 5.695312 14.070312 5.800781 14.023438 5.878906 13.949219 5.953125 13.871094 6 13.761719 6 13.65625 6 13.542969 5.953125 13.441406 5.878906 13.363281 5.726562 13.207031 5.445312 13.207031 5.292969 13.363281zM10.550781 13.242188L7.242188 13.242188C7.011719 13.242188 6.828125 13.425781 6.828125 13.65625 6.828125 13.882812 7.011719 14.070312 7.242188 14.070312L10.550781 14.070312C10.78125 14.070312 10.964844 13.882812 10.964844 13.65625 10.964844 13.425781 10.78125 13.242188 10.550781 13.242188zM18.414062 7.035156L17.585938 7.035156C17.359375 7.035156 17.171875 7.21875 17.171875 7.449219 17.171875 7.675781 17.359375 7.863281 17.585938 7.863281L18.414062 7.863281C18.640625 7.863281 18.828125 7.675781 18.828125 7.449219 18.828125 7.21875 18.640625 7.035156 18.414062 7.035156zM5.585938 9.929688L14.691406 9.929688C14.917969 9.929688 15.101562 9.746094 15.101562 9.515625 15.101562 9.289062 14.917969 9.101562 14.691406 9.101562L5.585938 9.101562C5.359375 9.101562 5.171875 9.289062 5.171875 9.515625 5.171875 9.746094 5.359375 9.929688 5.585938 9.929688zM18.414062 9.101562L15.929688 9.101562C15.703125 9.101562 15.515625 9.289062 15.515625 9.515625 15.515625 9.746094 15.703125 9.929688 15.929688 9.929688L18.414062 9.929688C18.640625 9.929688 18.828125 9.746094 18.828125 9.515625 18.828125 9.289062 18.640625 9.101562 18.414062 9.101562zM5.585938 12L7.242188 12C7.46875 12 7.65625 11.816406 7.65625 11.585938 7.65625 11.359375 7.46875 11.171875 7.242188 11.171875L5.585938 11.171875C5.359375 11.171875 5.171875 11.359375 5.171875 11.585938 5.171875 11.816406 5.359375 12 5.585938 12zM13.035156 11.171875L8.898438 11.171875C8.667969 11.171875 8.484375 11.359375 8.484375 11.585938 8.484375 11.816406 8.667969 12 8.898438 12L13.035156 12C13.261719 12 13.449219 11.816406 13.449219 11.585938 13.449219 11.359375 13.261719 11.171875 13.035156 11.171875zM18.414062 11.171875L14.691406 11.171875C14.460938 11.171875 14.277344 11.359375 14.277344 11.585938 14.277344 11.816406 14.460938 12 14.691406 12L18.414062 12C18.640625 12 18.828125 11.816406 18.828125 11.585938 18.828125 11.359375 18.640625 11.171875 18.414062 11.171875zM18.414062 11.171875"/>
</svg>

<svg xmlns="http://www.w3.org/2000/svg" width="32" height="32" viewBox="0 0 24 24">
    <path d="M21.082 5.043l-.316-.32-4.18-4.176-.32-.32A.778.778 0 0 0 15.719 0H3.707c-.488 0-1.016.379-1.016 1.21v21.962c0 .348.348.683.758.789.024.008.043.016.063.02.066.011.133.019.195.019h16.586c.062 0 .129-.008.195-.02.02-.003.04-.011.063-.02.41-.105.758-.44.758-.788V5.785c0-.32-.036-.555-.227-.742zm-1.246-.078h-3.492V1.477zM3.707 23.172c-.027 0-.055-.012-.082-.02a.192.192 0 0 1-.11-.172v-6.015h16.97v6.015c0 .079-.047.141-.11.172-.027.008-.055.02-.082.02zm-.191-7.035V1.21c0-.09.015-.383.191-.383h11.836a.55.55 0 0 0-.027.16v4.805h4.804a.72.72 0 0 0 .16-.023c0 .003.004.007.004.015v10.352zm0 0"/>
    <path d="M9.613 18.785a1.902 1.902 0 0 0-.66-.441 2.345 2.345 0 0 0-.926-.168H6.773v4.168h1.579c.05 0 .132-.004.242-.02.11-.012.23-.043.363-.09.129-.047.266-.117.41-.21.14-.098.266-.227.38-.391.112-.164.206-.367.28-.61.075-.242.11-.535.11-.878 0-.25-.043-.493-.13-.727a1.817 1.817 0 0 0-.394-.633zm-.492 2.621c-.207.293-.535.442-.996.442h-.676V18.69h.399c.324 0 .586.04.793.125.203.086.363.196.48.336.121.137.2.29.242.461.04.168.063.34.063.512 0 .559-.102.988-.305 1.281zm0 0M13.766 18.652a1.555 1.555 0 0 0-.551-.406 1.652 1.652 0 0 0-.688-.14c-.246 0-.476.046-.687.14-.207.094-.39.227-.547.406a1.844 1.844 0 0 0-.367.664c-.09.266-.133.575-.133.922 0 .352.043.66.133.93.086.266.21.488.367.668.156.176.34.309.547.402.21.09.441.133.687.133.25 0 .48-.043.688-.133.21-.093.394-.226.55-.402a1.96 1.96 0 0 0 .368-.668c.09-.27.133-.578.133-.93 0-.347-.043-.656-.133-.922a1.904 1.904 0 0 0-.367-.664zm-.282 2.325a1.313 1.313 0 0 1-.234.492.912.912 0 0 1-.738.351.878.878 0 0 1-.715-.367 1.382 1.382 0 0 1-.227-.488 2.924 2.924 0 0 1-.09-.727c.004-.289.036-.535.094-.734.055-.2.133-.363.235-.488a.837.837 0 0 1 .336-.27c.128-.05.261-.078.402-.078a.868.868 0 0 1 .715.363c.093.125.172.29.226.489.055.199.082.437.086.722-.004.29-.031.535-.09.735zm0 0M16.164 19.016a.855.855 0 0 1 .34-.27 1.05 1.05 0 0 1 .398-.078.847.847 0 0 1 .672.313l.469-.422a1.521 1.521 0 0 0-.523-.336 1.686 1.686 0 0 0-.633-.114c-.246 0-.477.043-.688.137-.21.094-.394.227-.55.406a1.904 1.904 0 0 0-.368.664c-.09.266-.133.575-.133.926 0 .348.043.66.133.926.09.27.211.492.367.668.157.176.34.312.551.402.207.09.438.137.688.137.226 0 .437-.04.633-.113.195-.078.37-.192.523-.34l-.469-.414a.928.928 0 0 1-.324.238 1.028 1.028 0 0 1-.383.074.878.878 0 0 1-.715-.367 1.382 1.382 0 0 1-.226-.488 2.754 2.754 0 0 1-.086-.723c0-.293.031-.535.09-.738.054-.2.133-.363.234-.488zm0 0M5.586 5.793H8.07a.414.414 0 0 0 0-.828H5.586a.414.414 0 0 0 0 .828zm0 0M5.586 7.863h3.723a.414.414 0 0 0 0-.828H5.586a.414.414 0 0 0 0 .828zm0 0M10.965 7.863c.11 0 .215-.047.293-.12a.439.439 0 0 0 .12-.294.431.431 0 0 0-.12-.293.425.425 0 0 0-.586 0 .431.431 0 0 0-.121.293c0 .106.047.215.12.293a.439.439 0 0 0 .294.121zm0 0M12.621 7.863h3.309a.414.414 0 0 0 0-.828H12.62a.414.414 0 0 0 0 .828zm0 0M5.293 13.363a.431.431 0 0 0-.121.293c0 .106.047.215.121.293a.439.439 0 0 0 .293.121c.11 0 .215-.047.293-.12A.439.439 0 0 0 6 13.655a.424.424 0 0 0-.121-.293.425.425 0 0 0-.586 0zm0 0M10.55 13.242H7.243a.414.414 0 0 0 0 .828h3.309a.414.414 0 0 0 0-.828zm0 0M18.414 7.035h-.828a.414.414 0 0 0 0 .828h.828a.414.414 0 0 0 0-.828zm0 0M5.586 9.93h9.105c.227 0 .41-.184.41-.414a.413.413 0 0 0-.41-.414H5.586a.414.414 0 0 0 0 .828zm0 0M18.414 9.102H15.93a.414.414 0 0 0 0 .828h2.484a.414.414 0 0 0 0-.828zm0 0M5.586 12h1.656a.414.414 0 0 0 0-.828H5.586a.414.414 0 0 0 0 .828zm0 0M13.035 11.172H8.898a.414.414 0 0 0 0 .828h4.137a.414.414 0 0 0 0-.828zm0 0M18.414 11.172h-3.723a.414.414 0 0 0 0 .828h3.723a.414.414 0 0 0 0-.828zm0 0"/>
</svg>
